svg/300/outlined/desktop_mac.svg

<svg xmlns="http://www.w3.org/2000/svg" width="48" height="48" viewBox="0 -960 960 960"><path d="M357.155-140.001v-31.923l80.539-81.154h-280q-23.529 0-40.611-17.082-17.082-17.081-17.082-40.61v-451.536q0-23.529 17.082-40.611 17.082-17.082 40.611-17.082h644.612q23.529 0 40.611 17.082 17.082 17.082 17.082 40.611v451.536q0 23.529-17.082 40.61-17.082 17.082-40.611 17.082h-280l80.539 81.154v31.923h-245.69Zm-211.77-230.997h669.23v-391.308q0-4.616-3.846-8.463-3.847-3.846-8.463-3.846H157.694q-4.616 0-8.463 3.846-3.846 3.847-3.846 8.463v391.308Zm0 0v-403.617 403.617Z"/></svg>

<svg xmlns="http://www.w3.org/2000/svg" width="48" height="48" viewBox="0 -960 960 960"><path d="M357.16-140v-31.92l80.53-81.16h-280q-23.53 0-40.61-17.08T100-310.77v-451.54q0-23.53 17.08-40.61T157.69-820h644.62q23.53 0 40.61 17.08T860-762.31v451.54q0 23.53-17.08 40.61t-40.61 17.08h-280l80.53 81.16V-140H357.16ZM145.39-371h669.22v-391.31q0-4.61-3.84-8.46-3.85-3.84-8.46-3.84H157.69q-4.61 0-8.46 3.84-3.84 3.85-3.84 8.46V-371Zm0 0v-403.61V-371Z"/></svg>
